assets/shopping-grey/ShoppingGrey12.svg

<svg xmlns="http://www.w3.org/2000/svg" data-name="Layer 3" viewBox="0 0 128 128"><path d="M100.261 45.458v-.019L92.3 27.935A1.591 1.591 0 0090.853 27H38.739a1.591 1.591 0 00-1.4.83l-9.548 17.5c-.016.03-.023.063-.037.094s-.032.078-.047.119a1.58 1.58 0 00-.111.549v53.314A1.59 1.59 0 0029.191 101h69.618a1.591 1.591 0 001.591-1.591V46.1a1.576 1.576 0 00-.139-.642zm-65.352-6.52h27.5v5.569H31.871zm30.682 0h28.215l2.531 5.569H65.591zm26.769-3.183H65.591v-5.569h24.237zm-52.677-5.569h22.726v5.569H36.645zm-8.9 17.5h31.626v50.129H30.782zm34.808 50.129V47.69h31.627v50.125z"/><path d="M83.131 57.47a1.594 1.594 0 00-1.2-.6 1.62 1.62 0 00-1.232.536l-8.22 9.283a1.592 1.592 0 102.384 2.11l5.437-6.137v14.3a1.591 1.591 0 003.183 0V63l4.592 5.74a1.592 1.592 0 002.486-1.989z"/></svg>

<svg id="Layer_3" data-name="Layer 3" xmlns="http://www.w3.org/2000/svg" viewBox="0 0 128 128"><title>Artboard 108</title><path d="M100.261,45.458c0-.006,0-.013,0-.019L92.3,27.935A1.591,1.591,0,0,0,90.853,27H38.739a1.591,1.591,0,0,0-1.4.83l-9.548,17.5c-.016.03-.023.063-.037.094s-.032.078-.047.119a1.58,1.58,0,0,0-.111.549V99.406A1.59,1.59,0,0,0,29.191,101H98.809a1.591,1.591,0,0,0,1.591-1.591V46.1A1.576,1.576,0,0,0,100.261,45.458Zm-65.352-6.52h27.5v5.569H31.871Zm30.682,0H93.806l2.531,5.569H65.591ZM92.36,35.755H65.591V30.186H89.828ZM39.683,30.186H62.409v5.569H36.645Zm-8.9,17.5H62.409V97.815H30.782ZM65.591,97.815V47.69H97.218V97.815Z"/><path d="M83.131,57.47a1.594,1.594,0,0,0-1.2-.6,1.62,1.62,0,0,0-1.232.536l-8.22,9.283a1.592,1.592,0,1,0,2.384,2.11L80.3,62.662v14.3a1.591,1.591,0,0,0,3.183,0V63l4.592,5.74a1.592,1.592,0,0,0,2.486-1.989Z"/></svg>
